img/advantages/04.svg

<svg width="100" height="100" viewBox="0 0 100 100" fill="none" xmlns="http://www.w3.org/2000/svg">
<path d="M45.6025 56.385C45.6216 56.3703 45.6402 56.355 45.6582 56.3392C45.6754 56.324 45.6921 56.3083 45.7083 56.2921C45.7773 56.2232 45.8371 56.147 45.8879 56.0636C46.0298 55.8303 46.1007 55.5403 46.1007 55.1935C46.1007 54.7226 45.9699 54.3629 45.7083 54.1144C45.5586 53.9646 45.366 53.86 45.1308 53.8005C44.9757 53.7612 44.8019 53.7416 44.6097 53.7416H40.6775L42.942 51.505C43.2704 51.1837 43.5618 50.8722 43.8162 50.5704C43.841 50.5411 43.8653 50.5118 43.8894 50.4826C44.071 50.2623 44.2326 50.0472 44.3742 49.8374C44.7404 49.3142 45.002 48.791 45.159 48.2679C45.329 47.7447 45.414 47.2084 45.414 46.6591C45.414 45.7827 45.2244 45.0503 44.8451 44.4617C44.4658 43.8601 43.9099 43.4023 43.1774 43.0884C42.8475 42.9444 42.4805 42.8335 42.0763 42.7555C41.5992 42.6635 41.0703 42.6175 40.4896 42.6175C40.3196 42.6175 40.1495 42.6224 39.9795 42.6321C39.4956 42.6598 39.0116 42.7268 38.5277 42.8333C38.4675 42.8468 38.4074 42.8612 38.3476 42.8763L38.2998 42.8885L38.249 42.902C37.9795 42.9743 37.7136 43.0632 37.4511 43.1685C37.1899 43.2733 36.9322 43.3945 36.6779 43.532L36.6639 43.5396C36.6185 43.564 36.5751 43.5893 36.5335 43.6156C36.2629 43.7864 36.0709 43.9965 35.9576 44.2459C35.8268 44.5206 35.781 44.8018 35.8202 45.0895C35.8725 45.3773 35.9903 45.6323 36.1734 45.8547C36.3696 46.077 36.605 46.2209 36.8797 46.2863C37.1674 46.3517 37.4879 46.3059 37.841 46.149C37.9015 46.1177 37.9615 46.088 38.0208 46.0596L38.0308 46.0549C38.2711 45.9408 38.5018 45.8506 38.7229 45.7843C38.8097 45.7583 38.8951 45.736 38.9789 45.7173C39.0375 45.7022 39.0955 45.6882 39.153 45.6756L39.1651 45.6729C39.4499 45.611 39.7213 45.58 39.9795 45.58C40.1623 45.58 40.3323 45.591 40.4896 45.613C40.7623 45.651 40.9968 45.7221 41.1931 45.8262C41.2645 45.864 41.3308 45.9062 41.3921 45.9528C41.7191 46.2013 41.8826 46.5741 41.8826 47.0711C41.8826 47.4635 41.7714 47.8558 41.549 48.2482C41.4954 48.3488 41.4318 48.4546 41.3584 48.5655C41.2094 48.7906 41.0197 49.0369 40.7893 49.3045L40.7797 49.3156C40.6835 49.427 40.5802 49.5421 40.47 49.6608L37.0366 53.2511C36.8831 53.4124 36.7453 53.5759 36.6233 53.7416L36.6073 53.7634L36.5925 53.784C36.5187 53.8867 36.4509 53.9903 36.3892 54.0948C36.2322 54.3825 36.1538 54.7095 36.1538 55.0757C36.1538 55.5989 36.278 55.9978 36.5265 56.2725C36.7063 56.4523 36.9603 56.5703 37.2885 56.6266C37.4377 56.6521 37.6023 56.6649 37.7822 56.6649H44.6097C45.029 56.6649 45.3599 56.5716 45.6025 56.385Z" fill="#9EA3B5"/>
<path fill-rule="evenodd" clip-rule="evenodd" d="M52.9402 54.3498V55.0561C52.9402 55.6447 53.0906 56.0894 53.3914 56.3902C53.7053 56.6911 54.137 56.8415 54.6863 56.8415C55.2455 56.8415 55.669 56.6927 55.9566 56.3953L55.9615 56.3902C56.1312 56.2132 56.253 55.9945 56.327 55.7342C56.3842 55.5331 56.4128 55.307 56.4128 55.0561V54.3498H56.8836C57.351 54.3498 57.7085 54.2457 57.9561 54.0376C57.9719 54.0243 57.9871 54.0107 58.0019 53.9967C58.1043 53.9045 58.1866 53.7964 58.249 53.6722C58.2719 53.6264 58.2922 53.5784 58.3097 53.5282C58.3661 53.3669 58.3943 53.183 58.3943 52.9765C58.3943 52.6456 58.3175 52.3724 58.1637 52.1568C58.1237 52.1007 58.0785 52.0484 58.0281 52.0001C58.0195 51.9919 58.0108 51.9839 58.0019 51.9759C57.9871 51.9618 57.9719 51.9482 57.9561 51.935C57.902 51.8895 57.8425 51.8489 57.7778 51.8133C57.5468 51.6863 57.2487 51.6227 56.8836 51.6227H56.4128V44.4421C56.4128 43.8404 56.2689 43.3957 55.9812 43.108C55.6934 42.8072 55.301 42.6567 54.804 42.6567C54.3593 42.6567 53.9735 42.7483 53.6465 42.9314C53.3195 43.1145 53.0252 43.4023 52.7636 43.7947L47.9765 50.7791C47.8987 50.8874 47.827 50.9917 47.7615 51.092C47.6687 51.2341 47.5882 51.3683 47.5199 51.4946C47.4963 51.5383 47.4742 51.581 47.4535 51.6227C47.4129 51.7049 47.378 51.7833 47.3487 51.8582C47.2682 52.0548 47.2153 52.2575 47.1898 52.4664C47.1858 52.4992 47.1825 52.5323 47.1798 52.5654C47.1776 52.5929 47.1759 52.6204 47.1747 52.6481C47.173 52.6854 47.1721 52.7229 47.1721 52.7607C47.1721 53.2969 47.3291 53.6958 47.643 53.9574C47.97 54.219 48.4212 54.3498 48.9967 54.3498H52.9402ZM52.9402 51.6227V47.8078L50.3696 51.6227H52.9402Z" fill="#9EA3B5"/>
<path d="M59.1072 49.2073C59.1237 49.1198 59.1483 49.0398 59.1811 48.9673C59.2229 48.8746 59.2781 48.794 59.3465 48.7256C59.4147 48.6574 59.4939 48.6023 59.584 48.5605C59.7231 48.496 59.8882 48.4629 60.0793 48.4614L60.0933 48.4613C60.1247 48.4613 60.1555 48.4622 60.1855 48.4638C60.1975 48.4644 60.2093 48.4652 60.221 48.466C60.4887 48.4864 60.6989 48.5729 60.8516 48.7256C60.8853 48.7579 60.916 48.793 60.9435 48.8307C61.0509 48.9778 61.1112 49.1661 61.1245 49.3954C61.1264 49.4279 61.1274 49.4613 61.1274 49.4954V51.702C61.1891 51.6185 61.2564 51.5411 61.3293 51.4698C61.4467 51.355 61.5786 51.256 61.7248 51.1729C61.856 51.1 61.9939 51.041 62.1384 50.9958C62.1763 50.984 62.2146 50.9731 62.2534 50.9632C62.4555 50.9115 62.6699 50.8856 62.8968 50.8856C63.3487 50.8856 63.7202 50.9737 64.0112 51.1499C64.0969 51.1995 64.1762 51.2577 64.2492 51.3244C64.2599 51.3342 64.2705 51.3442 64.2809 51.3544L64.2972 51.3705L64.2986 51.3719C64.4507 51.5254 64.5733 51.7195 64.6661 51.9542C64.8117 52.3142 64.8844 52.7699 64.8844 53.3214V55.7342C64.8844 56.0713 64.7964 56.3279 64.6202 56.504C64.509 56.6153 64.3672 56.6914 64.195 56.7324C64.0943 56.7563 63.9833 56.7683 63.8619 56.7683C63.5325 56.7683 63.2797 56.6802 63.1036 56.504C62.9274 56.3279 62.8393 56.0713 62.8393 55.7342V53.4019C62.8393 53.3744 62.8389 53.3476 62.8381 53.3214C62.8368 53.2755 62.8342 53.2315 62.8305 53.1894L62.8273 53.1574L62.8252 53.1381L62.8222 53.1144L62.8204 53.1012C62.8125 53.0442 62.802 52.9913 62.7889 52.9425C62.7687 52.8667 62.7425 52.8009 62.7101 52.7449L62.7022 52.7316C62.6877 52.708 62.6722 52.6864 62.6555 52.6665C62.6109 52.6101 62.5578 52.5646 62.496 52.5301C62.488 52.5256 62.4799 52.5214 62.4717 52.5173C62.4076 52.4855 62.3349 52.4647 62.2534 52.4549C62.2169 52.4504 62.1785 52.4482 62.1384 52.4482C62.0451 52.4482 61.9574 52.4575 61.8754 52.476C61.7557 52.503 61.6481 52.5497 61.5527 52.6161C61.499 52.6535 61.4491 52.6971 61.4031 52.747C61.338 52.8148 61.2844 52.8913 61.2423 52.9765C61.1813 53.1 61.1446 53.2418 61.1321 53.4019C61.129 53.4428 61.1274 53.4849 61.1274 53.5282V55.7342C61.1274 56.4236 60.7827 56.7683 60.0933 56.7683C59.9775 56.7683 59.871 56.7569 59.7741 56.734C59.7418 56.7264 59.7106 56.7176 59.6804 56.7074C59.5705 56.6705 59.4744 56.6169 59.3922 56.5464C59.383 56.5385 59.374 56.5304 59.3651 56.5221C59.3588 56.5162 59.3526 56.5102 59.3465 56.504C59.1703 56.3279 59.0822 56.0713 59.0822 55.7342V49.4954C59.0822 49.3918 59.0906 49.2957 59.1072 49.2073Z" fill="#9EA3B5"/>
<path fill-rule="evenodd" clip-rule="evenodd" d="M8.3335 49.4993C8.3335 26.487 26.9875 7.83301 49.9998 7.83301C73.012 7.83301 91.666 26.487 91.666 49.4993C91.666 72.5115 73.012 91.1655 49.9998 91.1655C26.9875 91.1655 8.3335 72.5115 8.3335 49.4993ZM34.2841 58.5149C34.2468 58.4776 34.2104 58.4393 34.1749 58.4001C33.2162 57.3404 32.9825 56.062 32.9825 55.0757C32.9825 54.2423 33.1655 53.3824 33.6052 52.5762C33.6226 52.5443 33.6405 52.5128 33.659 52.4815C33.9665 51.9611 34.3346 51.49 34.7402 51.0641L34.7447 51.0594L36.3228 49.4092C36.2743 49.3999 36.2257 49.3898 36.1769 49.3787L36.1451 49.3713C35.2009 49.1465 34.4015 48.6396 33.7955 47.9528C33.7717 47.9258 33.7483 47.8984 33.7254 47.8706C33.1929 47.224 32.8477 46.4683 32.7002 45.6568C32.6918 45.6107 32.6844 45.5644 32.6781 45.518C32.5526 44.598 32.7082 43.7049 33.0828 42.907C33.5598 41.8755 34.3514 41.1844 35.1543 40.7507C36.0012 40.291 36.8958 39.9495 37.8331 39.7391L37.8463 39.7361C38.7187 39.5442 39.6011 39.4463 40.4896 39.4463C41.8448 39.4463 43.2013 39.6409 44.4361 40.1776C45.6768 40.7113 46.7591 41.5577 47.5193 42.7573C47.9034 43.3566 48.1683 43.9924 48.3379 44.6426L50.138 42.0161C50.6065 41.3185 51.2419 40.6434 52.097 40.1645C52.9786 39.6708 53.9182 39.4855 54.804 39.4855C55.976 39.4855 57.2518 39.8638 58.2491 40.8913C59.3429 42.0029 59.584 43.4074 59.584 44.4421V45.3179C59.7599 45.2986 59.9305 45.2901 60.0933 45.2901C60.9756 45.2901 62.1307 45.5354 63.07 46.4594C63.4993 46.8776 63.7891 47.343 63.9789 47.81C64.522 47.9098 65.0851 48.0979 65.6271 48.4212C66.6206 49.0053 67.2524 49.8777 67.6102 50.7756C67.955 51.6333 68.0557 52.5237 68.0557 53.3214V55.7342C68.0557 56.6074 67.819 57.79 66.8626 58.7464C65.919 59.69 64.7517 59.9395 63.8619 59.9395C63.3053 59.9395 62.6401 59.8419 61.989 59.5378C61.3095 59.8538 60.6252 59.9395 60.0933 59.9395C59.3372 59.9395 58.4106 59.7568 57.5842 59.1568C56.6439 59.8143 55.5792 60.0127 54.6863 60.0127C53.5445 60.0127 52.2463 59.6852 51.1972 58.6798C51.181 58.6642 51.1649 58.6485 51.149 58.6326C50.8016 58.2851 50.5356 57.9085 50.3344 57.521H48.9967C48.9032 57.521 48.8079 57.5191 48.7111 57.515C48.5192 57.8709 48.2697 58.2155 47.9507 58.5345C46.9122 59.5731 45.6109 59.8361 44.6097 59.8361H37.7822C36.8206 59.8361 35.3992 59.63 34.2841 58.5149ZM43.1682 26.5865C43.9969 26.3285 44.828 26.1164 45.659 25.9488C58.9328 23.3617 71.851 31.9309 74.6 45.2093C76.8821 56.2324 71.4436 67.0595 61.9729 72.0761C61.8839 72.111 61.7957 72.1505 61.7087 72.1946C60.7243 72.6934 59.6945 73.132 58.6223 73.5039L59.3831 71.4826C59.9681 69.9282 59.1823 68.1939 57.628 67.6088C56.0736 67.0238 54.3392 67.8096 53.7542 69.364L50.7652 77.3053C50.2792 78.5964 50.7341 80.0527 51.8686 80.8376L58.5727 85.4759C59.9385 86.4209 61.8117 86.0797 62.7567 84.7139C63.7016 83.3481 63.3605 81.4749 61.9947 80.5299L60.2705 79.337C66.0501 77.3825 70.9396 73.8141 74.5292 69.2556C74.6789 69.1246 74.8177 68.9767 74.9429 68.8123C77.0351 66.0658 78.654 62.983 79.7272 59.7015C79.8096 59.4496 79.857 59.1946 79.872 58.9418C80.9967 55.1502 81.401 51.0968 80.9581 46.9747C81.006 46.685 81.0121 46.3834 80.9706 46.0772C80.7424 44.3937 80.3714 42.7083 79.8508 41.0361C79.3301 39.3639 78.6787 37.7658 77.9108 36.2504C77.7721 35.9767 77.5974 35.7334 77.3953 35.5231C75.4503 31.9458 72.8344 28.8415 69.7474 26.3415C69.5824 26.1193 69.3839 25.9163 69.1527 25.7402C66.4063 23.648 63.3235 22.0292 60.0419 20.956C59.8229 20.8843 59.6016 20.8391 59.3814 20.8187C55.4117 19.6002 51.1479 19.1732 46.8138 19.685C46.683 19.6855 46.5508 19.6946 46.4176 19.7126C45.0801 19.8939 43.7414 20.1653 42.409 20.5303C34.2225 22.7215 27.6259 28.0795 23.6827 34.9825C23.5397 35.2329 23.4367 35.4951 23.3715 35.7619C22.5425 37.3235 21.8475 38.9562 21.2964 40.6412C20.7791 42.223 21.642 43.9246 23.2237 44.4419C24.8055 44.9592 26.5071 44.0963 27.0244 42.5146C27.888 39.874 29.1911 37.3924 30.8747 35.1824C31.0218 34.9893 31.142 34.7842 31.2359 34.5714C33.307 32.034 35.8865 29.8976 38.8614 28.3338C39.0149 28.285 39.1665 28.2233 39.3149 28.1481C40.5318 27.5315 41.8181 27.0069 43.1682 26.5865ZM22.6344 50.8749C24.2835 50.6514 25.8015 51.8071 26.025 53.4562C26.2082 54.8081 26.5065 56.1648 26.9269 57.515C27.3473 58.8651 27.8719 60.1513 28.4886 61.3683C29.2408 62.8528 28.6472 64.666 27.1627 65.4182C25.6782 66.1704 23.865 65.5768 23.1128 64.0923C22.3449 62.5769 21.6935 60.9788 21.1728 59.3066C20.6522 57.6344 20.2812 55.949 20.053 54.2655C19.8296 52.6164 20.9853 51.0984 22.6344 50.8749ZM35.5229 69.8085C34.199 68.8 32.3083 69.0557 31.2999 70.3795C30.2914 71.7033 30.5471 73.594 31.8709 74.6025C34.6173 76.6947 37.7001 78.3135 40.9817 79.3868C42.5634 79.9041 44.265 79.0412 44.7823 77.4594C45.2997 75.8777 44.4368 74.1761 42.855 73.6588C40.2145 72.7952 37.7329 71.492 35.5229 69.8085Z" fill="#9EA3B5"/>
<path d="M37.7822 56.6649C37.2067 56.6649 36.7881 56.5341 36.5265 56.2725C36.278 55.9978 36.1538 55.5989 36.1538 55.0757C36.1538 54.7095 36.2322 54.3825 36.3892 54.0948C36.5592 53.807 36.775 53.5258 37.0366 53.2511L40.47 49.6608C40.9801 49.1115 41.3398 48.6406 41.549 48.2482C41.7714 47.8558 41.8826 47.4635 41.8826 47.0711C41.8826 46.5741 41.7191 46.2013 41.3921 45.9528C41.0651 45.7043 40.5942 45.58 39.9795 45.58C39.6656 45.58 39.3321 45.6258 38.9789 45.7173C38.6258 45.7958 38.2465 45.9397 37.841 46.149C37.4879 46.3059 37.1674 46.3517 36.8797 46.2863C36.605 46.2209 36.3696 46.077 36.1734 45.8547C35.9903 45.6323 35.8725 45.3773 35.8202 45.0895C35.781 44.8018 35.8268 44.5206 35.9576 44.2459C36.0884 43.9582 36.3238 43.7227 36.6639 43.5396C37.2655 43.2126 37.8868 42.9772 38.5277 42.8333C39.1817 42.6894 39.8356 42.6175 40.4896 42.6175C41.5621 42.6175 42.4581 42.7745 43.1774 43.0884C43.9099 43.4023 44.4658 43.8601 44.8451 44.4617C45.2244 45.0503 45.414 45.7827 45.414 46.6591C45.414 47.2084 45.329 47.7447 45.159 48.2679C45.002 48.791 44.7404 49.3142 44.3742 49.8374C44.0211 50.3606 43.5437 50.9164 42.942 51.505L39.7638 54.6443V53.7418L44.6097 53.7416C45.0936 53.7416 45.4598 53.8659 45.7083 54.1144C45.9699 54.3629 46.1007 54.7226 46.1007 55.1935C46.1007 55.6643 45.9699 56.0305 45.7083 56.2921C45.4598 56.5406 45.0936 56.6649 44.6097 56.6649H37.7822Z" fill="#9EA3B5"/>
<path d="M54.6863 56.8415C54.137 56.8415 53.7053 56.6911 53.3914 56.3902C53.0906 56.0894 52.9402 55.6447 52.9402 55.0561V54.3498H48.9967C48.4212 54.3498 47.97 54.219 47.643 53.9574C47.3291 53.6958 47.1721 53.2969 47.1721 52.7607C47.1721 52.4468 47.231 52.1459 47.3487 51.8582C47.4664 51.5573 47.6757 51.1977 47.9765 50.7791L52.7636 43.7947C53.0252 43.4023 53.3195 43.1145 53.6465 42.9314C53.9735 42.7483 54.3593 42.6567 54.804 42.6567C55.301 42.6567 55.6934 42.8072 55.9812 43.108C56.2689 43.3957 56.4128 43.8404 56.4128 44.4421V51.6227H56.8836C57.3807 51.6227 57.7534 51.7405 58.0019 51.9759C58.2635 52.2113 58.3943 52.5449 58.3943 52.9765C58.3943 53.4212 58.2635 53.7612 58.0019 53.9967C57.7534 54.2321 57.3807 54.3498 56.8836 54.3498H56.4128V55.0561C56.4128 55.6316 56.2624 56.0763 55.9615 56.3902C55.6738 56.6911 55.2487 56.8415 54.6863 56.8415ZM52.9402 51.6227L52.9402 46.9927H53.4896L49.8011 52.4665V51.6229L52.9402 51.6227Z" fill="#9EA3B5"/>
<path d="M60.0933 56.7683C59.7716 56.7683 59.5227 56.6802 59.3465 56.504C59.1703 56.3279 59.0822 56.0713 59.0822 55.7342V49.4954C59.0822 49.1584 59.1703 48.9018 59.3465 48.7256C59.5227 48.5494 59.7716 48.4613 60.0933 48.4613C60.4227 48.4613 60.6754 48.5494 60.8516 48.7256C61.0354 48.9018 61.1274 49.1584 61.1274 49.4954L61.1274 52.0003H60.9436C61.1274 51.6403 61.3878 51.3644 61.7248 51.1729C62.0695 50.9814 62.4601 50.8856 62.8968 50.8856C63.3487 50.8856 63.7202 50.9737 64.0112 51.1499C64.3023 51.3184 64.5206 51.5865 64.6661 51.9542C64.8117 52.3142 64.8844 52.7699 64.8844 53.3214V55.7342C64.8844 56.0713 64.7964 56.3279 64.6202 56.504C64.444 56.6802 64.1912 56.7683 63.8619 56.7683C63.5325 56.7683 63.2797 56.6802 63.1036 56.504C62.9274 56.3279 62.8393 56.0713 62.8393 55.7342V53.4019C62.8393 53.0572 62.778 52.8121 62.6555 52.6665C62.5406 52.521 62.3682 52.4482 62.1384 52.4482C61.8321 52.4482 61.5869 52.5478 61.4031 52.747C61.2193 52.9384 61.1274 53.1989 61.1274 53.5282V55.7342C61.1274 56.4236 60.7827 56.7683 60.0933 56.7683Z" fill="#9EA3B5"/>
</svg>

<svg width="100" height="100" viewBox="0 0 100 100" fill="none" xmlns="http://www.w3.org/2000/svg"><path d="M45.602 56.385a1.12 1.12 0 00.286-.321c.142-.234.213-.524.213-.87 0-.471-.131-.831-.393-1.08a1.22 1.22 0 00-.577-.313 2.125 2.125 0 00-.521-.06h-3.932l2.264-2.236a13.394 13.394 0 00.947-1.022c.182-.22.344-.436.485-.646a5.513 5.513 0 00.785-1.57c.17-.522.255-1.059.255-1.608 0-.876-.19-1.609-.569-2.197-.38-.602-.935-1.06-1.668-1.374a5.219 5.219 0 00-1.1-.333 8.405 8.405 0 00-1.587-.138 8.954 8.954 0 00-2.142.26l-.048.011-.051.014c-.27.072-.535.161-.798.267a7.486 7.486 0 00-.773.363l-.014.008c-.046.024-.089.05-.13.076-.271.17-.463.38-.576.63a1.465 1.465 0 00-.138.843c.053.288.17.543.353.766.197.222.432.366.707.431.287.066.608.02.961-.137l.18-.09.01-.004a4.82 4.82 0 011.122-.379l.012-.003a3.837 3.837 0 011.325-.06c.272.038.507.11.703.213.072.038.138.08.2.127.326.248.49.621.49 1.118 0 .393-.112.785-.334 1.177a3.91 3.91 0 01-.19.318 7.494 7.494 0 01-.57.738l-.01.012c-.096.111-.199.226-.309.345l-3.433 3.59a5.097 5.097 0 00-.414.49l-.016.022-.014.021a4.14 4.14 0 00-.204.31 2.014 2.014 0 00-.235.982c0 .523.124.922.372 1.197.18.18.434.297.762.354.15.025.314.038.494.038h6.828c.419 0 .75-.093.992-.28z" fill="#9EA3B5"/><path fill-rule="evenodd" clip-rule="evenodd" d="M52.94 54.35v.706c0 .589.15 1.033.451 1.334.314.301.746.452 1.295.452.56 0 .983-.15 1.27-.447l.005-.005a1.53 1.53 0 00.366-.656c.057-.2.086-.427.086-.678v-.706h.47c.468 0 .825-.104 1.073-.312l.046-.041a1.092 1.092 0 00.308-.469c.056-.161.084-.345.084-.551 0-.331-.076-.605-.23-.82a1.106 1.106 0 00-.208-.222 1.1 1.1 0 00-.178-.122c-.231-.127-.53-.19-.894-.19h-.471v-7.18c0-.603-.144-1.047-.432-1.335-.288-.3-.68-.451-1.177-.451-.445 0-.83.091-1.157.274-.328.184-.622.471-.883.864l-4.788 6.984c-.077.108-.149.213-.215.313a5.699 5.699 0 00-.308.53c-.04.083-.075.161-.104.236a2.35 2.35 0 00-.177.903c0 .536.157.935.471 1.196.327.262.778.393 1.354.393h3.943zm0-2.727v-3.815l-2.57 3.815h2.57z" fill="#9EA3B5"/><path d="M59.107 49.207c.017-.087.041-.167.074-.24a.808.808 0 01.403-.407 1.21 1.21 0 01.495-.099h.014a1.732 1.732 0 01.128.005c.268.02.478.107.63.26a.792.792 0 01.093.105c.107.147.167.335.18.564.002.033.003.066.003.1v2.207a1.92 1.92 0 011.011-.706 2.587 2.587 0 01.758-.11c.453 0 .824.088 1.115.264a1.367 1.367 0 01.27.204l.016.017h.002c.152.154.274.348.367.583.146.36.218.816.218 1.367v2.413c0 .337-.088.594-.264.77a.871.871 0 01-.425.228c-.1.024-.212.036-.333.036-.33 0-.582-.088-.758-.264-.177-.176-.265-.433-.265-.77v-2.332a2.637 2.637 0 00-.008-.213l-.004-.032-.002-.019-.003-.024-.002-.013a1.303 1.303 0 00-.031-.158.81.81 0 00-.079-.198l-.008-.013a.543.543 0 00-.046-.066.533.533 0 00-.184-.149.667.667 0 00-.219-.062 1.193 1.193 0 00-.378.021.909.909 0 00-.472.271.914.914 0 00-.16.23 1.156 1.156 0 00-.11.425c-.004.04-.006.083-.006.126v2.206c0 .69-.344 1.034-1.034 1.034a1.389 1.389 0 01-.413-.06.856.856 0 01-.334-.204c-.176-.176-.264-.433-.264-.77v-6.239c0-.103.009-.2.025-.288z" fill="#9EA3B5"/><path fill-rule="evenodd" clip-rule="evenodd" d="M8.334 49.5C8.334 26.486 26.988 7.832 50 7.832c23.012 0 41.666 18.654 41.666 41.666 0 23.012-18.654 41.666-41.666 41.666-23.012 0-41.666-18.654-41.666-41.666zm25.95 9.015a3.202 3.202 0 01-.11-.115c-.958-1.06-1.191-2.338-1.191-3.324a5.184 5.184 0 01.676-2.595c.308-.52.676-.991 1.081-1.417l.005-.005 1.578-1.65a4.355 4.355 0 01-.146-.03l-.032-.008a4.509 4.509 0 01-2.42-1.5 4.817 4.817 0 01-1.047-2.353c-.125-.92.03-1.813.405-2.611.477-1.031 1.268-1.723 2.071-2.156.847-.46 1.742-.801 2.68-1.012l.012-.003a12.28 12.28 0 012.644-.29c1.355 0 2.711.195 3.946.732 1.24.533 2.323 1.38 3.083 2.58a6.5 6.5 0 01.819 1.885l1.8-2.627c.468-.697 1.104-1.373 1.959-1.852.882-.493 1.821-.678 2.707-.678 1.172 0 2.448.378 3.445 1.405 1.094 1.112 1.335 2.516 1.335 3.551v.876c.176-.02.346-.028.51-.028.882 0 2.037.245 2.976 1.17.43.418.72.883.909 1.35a4.94 4.94 0 011.648.611c.994.584 1.625 1.457 1.983 2.355.345.857.446 1.748.446 2.545v2.413c0 .873-.237 2.056-1.193 3.012-.944.944-2.111 1.194-3.001 1.194a4.443 4.443 0 01-1.873-.402 4.517 4.517 0 01-1.896.402c-.756 0-1.682-.183-2.509-.783-.94.657-2.005.856-2.898.856-1.142 0-2.44-.328-3.489-1.333a4.495 4.495 0 01-.863-1.159h-1.337a6.75 6.75 0 01-.286-.006 4.37 4.37 0 01-.76 1.02c-1.039 1.038-2.34 1.301-3.341 1.301h-6.828c-.961 0-2.383-.206-3.498-1.321zm8.884-31.928c.829-.259 1.66-.47 2.491-.638 13.274-2.587 26.192 5.982 28.941 19.26 2.282 11.023-3.156 21.85-12.627 26.867a3.035 3.035 0 00-.264.119c-.985.498-2.015.937-3.087 1.309l.761-2.021a3.007 3.007 0 00-5.629-2.119l-2.989 7.941a3.007 3.007 0 001.104 3.533l6.704 4.638a3.007 3.007 0 103.422-4.946l-1.724-1.193a30.611 30.611 0 0014.258-10.081c.15-.131.289-.28.414-.444a30.886 30.886 0 004.784-9.11c.083-.252.13-.507.145-.76a30.545 30.545 0 001.086-11.967 3.03 3.03 0 00.013-.898 30.928 30.928 0 00-1.12-5.04 30.916 30.916 0 00-1.94-4.787 3.013 3.013 0 00-.516-.727 30.668 30.668 0 00-7.648-9.182 3.014 3.014 0 00-.594-.6 30.883 30.883 0 00-9.111-4.785 3.015 3.015 0 00-.66-.137 30.55 30.55 0 00-12.568-1.134c-.131 0-.263.01-.396.028a30.855 30.855 0 00-4.009.817c-8.187 2.191-14.783 7.55-18.726 14.453-.143.25-.246.512-.311.779a30.88 30.88 0 00-2.076 4.88 3.013 3.013 0 005.728 1.873 24.858 24.858 0 013.85-7.333c.148-.193.268-.398.362-.61a24.649 24.649 0 017.625-6.238c.154-.049.306-.11.454-.186a24.893 24.893 0 013.853-1.561zM22.634 50.874a3.013 3.013 0 013.391 2.581c.183 1.352.482 2.709.902 4.059a24.82 24.82 0 001.562 3.853 3.013 3.013 0 11-5.376 2.724 30.916 30.916 0 01-1.94-4.785 30.928 30.928 0 01-1.12-5.041 3.013 3.013 0 012.581-3.391zm12.889 18.933a3.013 3.013 0 10-3.652 4.794 30.886 30.886 0 009.11 4.785 3.013 3.013 0 001.874-5.728 24.86 24.86 0 01-7.332-3.85z" fill="#9EA3B5"/><path d="M37.782 56.665c-.575 0-.994-.13-1.255-.392-.249-.275-.373-.674-.373-1.197 0-.367.078-.694.235-.981.17-.288.386-.57.648-.844l3.433-3.59c.51-.55.87-1.02 1.079-1.413.222-.392.334-.784.334-1.177 0-.497-.164-.87-.49-1.118-.328-.249-.799-.373-1.413-.373a4.02 4.02 0 00-1.001.137 4.764 4.764 0 00-1.138.432c-.353.157-.674.203-.961.137a1.339 1.339 0 01-.707-.431 1.647 1.647 0 01-.353-.765c-.039-.288.007-.57.138-.844.13-.288.366-.523.706-.706a7.186 7.186 0 011.864-.707 9.105 9.105 0 011.962-.215c1.072 0 1.968.157 2.687.47.733.314 1.289.772 1.668 1.374.38.588.569 1.32.569 2.197 0 .55-.085 1.086-.255 1.609a5.513 5.513 0 01-.785 1.57c-.353.523-.83 1.078-1.432 1.667l-3.178 3.14v-.903h4.846c.484 0 .85.124 1.098.372.262.249.393.609.393 1.08 0 .47-.131.837-.393 1.098-.248.249-.614.373-1.098.373h-6.828zm16.904.177c-.549 0-.98-.15-1.295-.452-.3-.3-.45-.745-.45-1.334v-.706h-3.944c-.576 0-1.027-.131-1.354-.393-.314-.261-.47-.66-.47-1.196 0-.314.058-.615.176-.903.117-.3.327-.66.628-1.079l4.787-6.984c.261-.393.555-.68.883-.864.327-.183.712-.274 1.157-.274.497 0 .89.15 1.177.451.288.288.432.732.432 1.334v7.18h.47c.498 0 .87.118 1.119.354.261.235.392.569.392 1 0 .445-.13.785-.392 1.02-.249.236-.621.354-1.118.354h-.471v.706c0 .576-.15 1.02-.451 1.334-.288.301-.713.452-1.276.452zm-1.746-5.22v-4.63h.55l-3.69 5.476v-.844h3.14zm7.153 5.146c-.321 0-.57-.088-.747-.264-.176-.176-.264-.433-.264-.77v-6.239c0-.337.088-.593.264-.77.177-.176.426-.264.747-.264.33 0 .582.088.759.265.183.176.275.432.275.77V52h-.183c.183-.36.444-.636.78-.827a2.372 2.372 0 011.173-.287c.452 0 .823.088 1.114.264.291.168.51.437.655.804.146.36.218.816.218 1.367v2.413c0 .337-.088.594-.264.77-.176.176-.429.264-.758.264-.33 0-.582-.088-.758-.264-.177-.176-.265-.433-.265-.77v-2.332c0-.345-.061-.59-.183-.736-.115-.145-.288-.218-.518-.218-.306 0-.551.1-.735.299-.184.191-.276.452-.276.781v2.206c0 .69-.344 1.034-1.034 1.034z" fill="#9EA3B5"/></svg>
